X: 31150
T: Paddy Fahey's
R: reel
M: 4/4
K: Gmajor
DGGA _B2 ~B2|A/B/c AG F/G/AD2|~d3 =B cAdc|BGAF DGGF|
DGGA _B2 ~B2|A/B/c AG F/G/AD2|~d3 =B cAdc|1 BGAF G2 z F:|2 BGAF DGBd||
|:gfga bgag|bgag fdd2|~g3a (3bag ag|fdcA dggf|
gdBG DGBd|~c2 B/c/d c=F A/B/c|dgge ~=f2dc|1 BGAF DGBd:|2 BGAF G2 z F||

